docs/.gitbook/assets/icon-cart-16@dark.svg

<svg width="32" height="32" viewBox="0 0 16 16" fill="none" xmlns="http://www.w3.org/2000/svg">
<rect x="0" y="0" width="16" height="16" fill="#181c1f"/>
<path fill-rule="evenodd" clip-rule="evenodd" d="M1 1.75C1 1.33579 1.33579 1 1.75 1H1.94948C3.35681 1 4.53704 2.06251 4.68437 3.46212L4.74099 4H14.25C14.488 4 14.7119 4.11297 14.8533 4.30442C14.9947 4.49588 15.0368 4.74308 14.9668 4.97056L13.4012 10.0587C13.0462 11.2126 11.9801 12 10.7729 12H6.55052C5.14319 12 3.96296 10.9375 3.81563 9.53788L3.31991 4.82851L3.19261 3.61914C3.12564 2.98296 2.58917 2.5 1.94948 2.5H1.75C1.33579 2.5 1 2.16421 1 1.75ZM4.89888 5.5L5.30739 9.38086C5.37436 10.017 5.91082 10.5 6.55052 10.5H10.7729C11.3216 10.5 11.8062 10.1421 11.9676 9.61761L13.2345 5.5H4.89888ZM5.25 14C5.25 13.5858 5.58579 13.25 6 13.25H6.01C6.42421 13.25 6.76 13.5858 6.76 14C6.76 14.4142 6.42421 14.75 6.01 14.75H6C5.58579 14.75 5.25 14.4142 5.25 14ZM10.25 14C10.25 13.5858 10.5858 13.25 11 13.25H11.01C11.4242 13.25 11.76 13.5858 11.76 14C11.76 14.4142 11.4242 14.75 11.01 14.75H11C10.5858 14.75 10.25 14.4142 10.25 14Z" fill="#fff"/>
</svg>

<svg xmlns="http://www.w3.org/2000/svg" width="32" height="32" fill="none" viewBox="0 0 16 16"><path fill="#181c1f" d="M0 0h16v16H0z"/><path fill="#fff" fill-rule="evenodd" d="M1 1.75A.75.75 0 0 1 1.75 1h.2a2.75 2.75 0 0 1 2.734 2.462L4.741 4h9.509a.75.75 0 0 1 .717.97L13.4 10.06A2.75 2.75 0 0 1 10.773 12H6.55a2.75 2.75 0 0 1-2.735-2.462l-.496-4.71-.127-1.209A1.25 1.25 0 0 0 1.949 2.5H1.75A.75.75 0 0 1 1 1.75M4.899 5.5l.408 3.88a1.25 1.25 0 0 0 1.244 1.12h4.222a1.25 1.25 0 0 0 1.195-.882L13.235 5.5zM5.25 14a.75.75 0 0 1 .75-.75h.01a.75.75 0 0 1 0 1.5H6a.75.75 0 0 1-.75-.75m5 0a.75.75 0 0 1 .75-.75h.01a.75.75 0 0 1 0 1.5H11a.75.75 0 0 1-.75-.75" clip-rule="evenodd"/></svg>
